X:15206
T:Self,The. JC.043
T:Sylph,The. JC.043
M:6/8
L:1/8
Q:120
S:John Clare,Poet,Helpston. (1793-1864)
R:Jig
O:England
A:Northamptonshire
N:
Z:P Headford
K:D
A|AFA dfa|agf e2g|fag fed| cee e2A|!
AFA dfa|agfe2g|fad egc|dddd2:|!
|:a|fad' d'c'b|baff2d|f/g/ad f/g/ad|ceee2e|!
fad' d'c'b|bagf2d|f/g/af gec|dddd2:|]
